assets/icons/thumbs-down.svg

<svg width="16" height="14" viewBox="0 0 16 14" fill="none" xmlns="http://www.w3.org/2000/svg">
<path fill-rule="evenodd" clip-rule="evenodd" d="M9.29329 12.6933C8.68072 13.6122 7.38065 13.7409 6.59977 12.96L6.56268 12.9229C5.90069 12.261 5.61335 11.3119 5.79695 10.3939L5.98823 9.43751H1.75059C0.977386 9.43751 0.350586 8.81071 0.350586 8.03751V6.57459C0.350586 6.42137 0.367354 6.2686 0.400593 6.11903L1.28194 2.15299C1.49545 1.19216 2.34766 0.508545 3.33193 0.508545H13.6711C14.4443 0.508545 15.0711 1.13535 15.0711 1.90854V7.45836C15.0711 8.23156 14.4443 8.85836 13.6711 8.85836H11.8499L9.29329 12.6933ZM12.1753 7.45836H13.6711V1.90854H12.1753V7.45836ZM10.7753 1.90854H3.33193C3.00384 1.90854 2.71977 2.13642 2.6486 2.45669L1.76725 6.42273C1.75618 6.47259 1.75059 6.52351 1.75059 6.57459V8.03751H6.8421C7.05181 8.03751 7.25048 8.13154 7.38344 8.29372C7.51639 8.4559 7.56963 8.66915 7.5285 8.87479L7.16976 10.6685C7.07796 11.1275 7.22164 11.602 7.55263 11.933L7.58972 11.9701C7.74589 12.1263 8.00591 12.1005 8.12842 11.9167L10.7753 7.94642V1.90854Z" fill="#494369"/>
</svg>

<svg xmlns="http://www.w3.org/2000/svg" width="16" height="14" fill="none" viewBox="0 0 16 14"><path fill="#494369" fill-rule="evenodd" d="M9.293 12.693a1.75 1.75 0 0 1-2.693.267l-.037-.037a2.8 2.8 0 0 1-.766-2.53l.191-.955H1.751a1.4 1.4 0 0 1-1.4-1.4V6.575a2 2 0 0 1 .05-.456l.88-3.966A2.1 2.1 0 0 1 3.332.509h10.34a1.4 1.4 0 0 1 1.4 1.4v5.55a1.4 1.4 0 0 1-1.4 1.4H11.85zm2.882-5.235h1.496v-5.55h-1.496zm-1.4-5.55H3.332a.7.7 0 0 0-.683.549l-.882 3.966a.7.7 0 0 0-.016.152v1.463h5.091a.7.7 0 0 1 .687.837l-.36 1.793a1.4 1.4 0 0 0 .384 1.265l.037.037a.35.35 0 0 0 .538-.053l2.647-3.97z" clip-rule="evenodd"/></svg>
